res/skins/Deere/image/vinyl_spinny_cover_mask.svg

<svg id="svg4744" width="100" height="100" version="1.1" viewBox="0 0 100 100" xmlns="http://www.w3.org/2000/svg"><g id="layer4"><path id="rect5449-8" d="m0 0v100h100v-100h-100zm50 5a45 45 0 0 1 45 45 45 45 0 0 1-45 45 45 45 0 0 1-45-45 45 45 0 0 1 45-45z" color="#000000" fill="#333"/><circle id="circle11130-0" transform="rotate(-90)" cx="-50" cy="50" r="44" color="#000000" fill="none" stroke="#d2d2d2" stroke-width="4"/><circle id="circle11130-2" transform="rotate(-90)" cx="-50" cy="50" r="41" color="#000000" fill="none" stroke="#222" stroke-width="2"/></g></svg>

<?xml version="1.0" encoding="UTF-8" standalone="no"?>
<svg
   xmlns:dc="http://purl.org/dc/elements/1.1/"
   xmlns:cc="http://creativecommons.org/ns#"
   xmlns:rdf="http://www.w3.org/1999/02/22-rdf-syntax-ns#"
   xmlns:svg="http://www.w3.org/2000/svg"
   xmlns="http://www.w3.org/2000/svg"
   version="1.1"
   id="svg4744"
   viewBox="0 0 100 100"
   height="100"
   width="100">
  <defs
     id="defs4746" />
  <metadata
     id="metadata4749">
    <rdf:RDF>
      <cc:Work
         rdf:about="">
        <dc:format>image/svg+xml</dc:format>
        <dc:type
           rdf:resource="http://purl.org/dc/dcmitype/StillImage" />
        <dc:title></dc:title>
      </cc:Work>
    </rdf:RDF>
  </metadata>
  <g
     style="display:inline"
     id="layer4">
    <path
       id="rect5449-8"
       d="M 0,0 0,100 100,100 100,0 0,0 Z M 50,5 A 45,45 0 0 1 95,50 45,45 0 0 1 50,95 45,45 0 0 1 5,50 45,45 0 0 1 50,5 Z"
       style="color:#000000;display:inline;overflow:visible;visibility:visible;opacity:1;fill:#333333;fill-opacity:1;fill-rule:nonzero;stroke:none;stroke-width:0;stroke-miterlimit:4;stroke-dasharray:none;stroke-dashoffset:0;stroke-opacity:1;marker:none;enable-background:accumulate" />
    <circle
       r="44"
       style="color:#000000;display:inline;overflow:visible;visibility:visible;opacity:1;fill:none;fill-opacity:1;fill-rule:nonzero;stroke:#d2d2d2;stroke-width:3.99999976;stroke-miterlimit:4;stroke-dasharray:none;stroke-dashoffset:0;stroke-opacity:1;marker:none;enable-background:accumulate"
       id="circle11130-0"
       transform="matrix(0,-1,1,0,0,0)"
       cx="-50"
       cy="50" />
    <circle
       style="color:#000000;display:inline;overflow:visible;visibility:visible;opacity:1;fill:none;fill-opacity:1;fill-rule:nonzero;stroke:#222222;stroke-width:2;stroke-miterlimit:4;stroke-dasharray:none;stroke-dashoffset:0;stroke-opacity:1;marker:none;enable-background:accumulate"
       id="circle11130-2"
       transform="matrix(0,-1,1,0,0,0)"
       cx="-50"
       cy="50"
       r="41" />
  </g>
</svg>
